!!!OTL@@DE: Trinklied
!!!COM: Zelter, Carl Friedrich
!!!ODT: 1802
!!!OMD: M&auml;ssig
!!!LYR: M&uuml;chler, Carl
!!!LDT: 1795, 1802
!!!OCL: Erk, Ludwig
!!!GCO: Deutscher Liederschatz, Band 1
**kern	**kern	**kern
*staff3	*staff2	*staff1
*Ipiano	*Ipiano	*Ivox
*clefF4	*clefG2	*clefG2
*k[b-e-]	*k[b-e-]	*k[b-e-]
*B-:	*B-:	*B-:
*met(C)	*met(C)	*met(C)
*M4/4	*M4/4	*M4/4
*MM118	*MM118	*MM118
4F\	4f/	4f/
=1	=1	=1
4B-\	4b-\	4b-\
4B-\	4b-\	4b-\
4B-\	4b-\	4b-\
4B-\	4b-\	4b-\
=2	=2	=2
4.A\	4.a/	4.a/
8G\	8g/	8g/
4F\	4f/	4f/
4r	4b-\	4b-\
=3	=3	=3
2r	4f/	4f/
.	4d/	4d/
*	*^	*
2FF/ 2F/	4e-/	2A\	4e-/
.	4c/	.	4c/
*	*v	*v	*
=4	=4	=4
2BB-\ 2F\	2B-/ 2d/	4.d/
.	.	8r
2F\	2f/	2f/
=5	=5	=5
4B-\	4b-\	4b-\
4F\	4f/	4f/
4d\	4dd\	4dd\
4B-\	4b-\	4b-\
=6	=6	=6
4G\	4g/	4g/
4B-\	4b-\	4b-\
4En\	4en/	4en/
4B-\ 4c\	4e/ 4cc/	4cc\
=7	=7	=7
4A\	4f/ 4cc/	4a/
(8F\L	(8f/L	8f/L
8A\J)	8a/J)	8a/J
4c\	4cc\	4cc\
4C\ 4En\	4c/	4c/
=8	=8	=8
2FF/ 2F/	2A/ 2f/	2f/
2r	4r	4r
.	4cc\	4cc\
=9	=9	=9
4F\ 4A\	4f/	4f/
4r	4f/	4f/
*	*^	*
4F\ 4B-\	4g/	4f\	4g/
*	*v	*v	*
4r	4g/	4g/
=10	=10	=10
*	*^	*
4F\ 4c\	4a/	4f\	4a/
*	*v	*v	*
4r	4a/	4a/
*	*^	*
4F\ 4d\	4b-/	4f\	4b-\
*	*v	*v	*
4r	4b-/	4b-\
=11	=11	=11
*	*^	*
4F\ 4A\	4cc/	4f\	4cc\
*	*v	*v	*
4r	4cc/	4cc\
*	*^	*
4F\ 4B-\	4dd/	4f\	4dd\
*	*v	*v	*
4r	4dd/	4dd\
=12	=12	=12
*	*^	*
4F\ 4c\	4ee-/	4f\	4ee-\
*	*v	*v	*
4r	4ee-/	4ee-\
*	*^	*
4F\ 4d\	4ff/	4f\	4ff\
*	*v	*v	*
4d\	4ff/	4ff\
=13	=13	=13
*	*^	*
4F\ 4c\	4ee-/	4f\	4ee-\
*	*v	*v	*
4A\	4cc/	4cc\
*	*^	*
4F\ 4B-\	4dd/	4f\	4dd\
*	*v	*v	*
4G\	4b-/	4b-\
=14	=14	=14
2F\ 2c\	2a\ 2ff\	2ff\
4r	4r	4r
4F\	4f/	4f/
=15	=15	=15
4E-\	4e-/	4e-/
4C/	4c/	4c'/
4D\	4d/	4d/
4BB-/	4B-/	4B-/
=16	=16	=16
2F\	2f/	2f/
4r	4r	4r
4F\	4f/	4f/
=17	=17	=17
4B-\	4b-\	4b-\
4B-\	4b-\	4b-\
4B-\	4b-\	4b-\
(8d\L	(8dd\L	8dd\L
8B-\J)	8b-\J)	8b-\J
=18	=18	=18
4G\	4g/	4g/
4G\	4g/	4g/
4G\	4g/	4g/
(8A\L	(8a/L	8a/L
8B-\J)	8b-/J)	8b-/J
=19	=19	=19
4c\	4cc\	4cc\
4c\	4cc\	4cc\
4e-\	4ee-\	4ee-\
4c\	4cc\	4cc\
=20	=20	=20
4A\	4a/	4a/
(8c\L	(8cc\L	8cc\L
8A\J)	8a\J)	8a\J
4F\	4f/	4f/
4F\	4a\ 4cc\	4cc\
=21	=21	=21
4B-\	4b-\ 4dd\	4dd\
4F\	4a\ 4cc\	4cc\
4B-\	4b-\ 4dd\	4dd\
4F\	4a\ 4cc\	4cc\
=22	=22	=22
2.B-\	4.b-\ (4.dd\	(4.dd\
.	8cc\ 8ee-\	8ee-\
.	4dd\ 4ff\)	4ff\)
4F\ 4A\	4f\ 4cc\ 4ee-\	4ee-\
=23	=23	=23
4B-\	4f/ 4b-/ 4dd/	4dd\
4B-\	4f/ 4b-/ 4dd/	4dd\
4F\	4f/ 4a/ 4cc/	4cc\
4F\	4f/ 4a/ 4cc/	4cc\
=24	=24	=24
2BB-/	2d/ 2b-/	2b-\
4r	4r	4r
4F\	4f/	4f/
=25	=25	=25
4B-\	4b-\	4b-\
4B-\	4b-\	4b-\
4B-\	4b-\	4b-\
(8d\L	(8dd\L	8dd\L
8B-\J)	8b-\J)	8b-\J
=26	=26	=26
4G\	4g/	4g/
4G\	4g/	4g/
4G\	4g/	4g/
(8A\L	(8a/L	8a/L
8B-\J)	8b-/J)	8b-/J
=27	=27	=27
4c\	4cc\	4cc\
4c\	4cc\	4cc\
4e-\	4ee-\	4ee-\
4c\	4cc\	4cc\
=28	=28	=28
4.A\	4.a/	4.a/
8c\	8cc\	8cc\
4F\	4f/	4f/
*	*	*^
4F\	4a\ 4cc\	4a/ 4cc/	4f\
=29	=29	=29	=29
4B-\	4b-\ 4dd\	4dd/	4b-\
4F\	4a\ 4cc\	4a/ 4cc/	4f\
4B-\	4b-\ 4dd\	4dd/	4b-\
4F\	4f/ 4a/ 4cc/	4a/ 4cc/	4f\
=30	=30	=30	=30
*	*^	*	*
(4.B-\	(4.dd/	2.f\ 2.b-\	4.b-/ (4.dd/	2.b-\
8c\	8ee-/	.	8cc/ 8ee-/	.
4d\)	4ff/)	.	4dd/ 4ff/)	.
4c\	4ryy	4f\ 4a\ 4ee-\	4ee-/	4cc\
*	*v	*v	*	*
=31	=31	=31	=31
4B-\	4f/ 4b-/ 4dd/	4dd/	4b-\
4B-\	4f/ 4b-/ 4dd/	4dd/	4b-\
4F\	4f/ 4a/ 4cc/	4cc/	4f\
4F\	4f/ 4a/ 4cc/	4cc/	4f\
*	*	*v	*v
=32	=32	=32
2BB-/	2d/ 2f/ 2b-/	2B-/ 2d/ 2b-/
4r	4r	4r
==	==	==
*-	*-	*-
!!!ENC: Craig Stuart Sapp
!!!END: 2004/05/26/
!!!EFL: 025/651
